X: 189
T: Polska efter Carl-Johan Björklund
O: Hagfors, Värmland
Z:Transcribed to abcby Jon Magnusson 080502
D: Harv - Must
R: Polska
M: 3/4
L: 1/8
K: Dm
(3:2:2 A2a4 (3 gag|a2 (3 fgf (3 efe|(3:2:4 d2^cde2 f>d|(3:2:4 e2ae^c2 A2|
(3:2:2 A2a4 (3 gag|a2 (3 fgf (3 efe|(3:2:4 d2^cde2 f>d|(3 ^c=Bc d4:|
|:(3:2:3 d2{e}=B2G2 G>B|(3:2:4 d2A2=BA ^F>A|A>c (3=BAB G>B|
(3:2:4 d2A2=BA ^F>A|(3 A=B^c d>e f>g|(3e^ce d4:|
(:musicend:)

(:music:)
